svg/u1f39f.svg

<svg viewBox="0 0 128 128" xmlns="http://www.w3.org/2000/svg">
  <g>
    <path d="M123.77,41.59c0.08,0,0.15,0.01,0.23,0.01v-3.46h-3.45c-4.31,0-7.9-3.06-8.72-7.13 c-0.21-1.03-1.11-1.77-2.16-1.77H18.33c-1.05,0-1.95,0.74-2.16,1.77c-0.82,4.07-4.41,7.13-8.72,7.13H4v3.46 c0.08-0.01,0.15-0.01,0.23-0.01c1.53,0,2.77,1.24,2.77,2.77c0,1.53-1.24,2.77-2.77,2.77c-0.08,0-0.15-0.01-0.23-0.01v2.33 c0.08-0.01,0.15-0.01,0.23-0.01c1.53,0,2.77,1.24,2.77,2.77c0,1.53-1.24,2.77-2.77,2.77c-0.08,0-0.15-0.01-0.23-0.01v2.33 c0.08-0.01,0.15-0.01,0.23-0.01C5.76,57.3,7,58.54,7,60.07c0,1.53-1.24,2.77-2.77,2.77c-0.08,0-0.15-0.01-0.23-0.01v2.33 c0.08-0.01,0.15-0.01,0.23-0.01C5.76,65.15,7,66.4,7,67.93S5.76,70.7,4.23,70.7c-0.08,0-0.15-0.01-0.23-0.01v2.33 c0.08-0.01,0.15-0.01,0.23-0.01c1.53,0,2.77,1.24,2.77,2.77c0,1.53-1.24,2.77-2.77,2.77c-0.08,0-0.15-0.01-0.23-0.01v2.33 c0.08-0.01,0.15-0.01,0.23-0.01c1.53,0,2.77,1.24,2.77,2.77s-1.24,2.77-2.77,2.77c-0.08,0-0.15-0.01-0.23-0.01v3.46h3.45 c4.31,0,7.9,3.06,8.72,7.13c0.21,1.03,1.11,1.77,2.16,1.77h91.34c1.05,0,1.95-0.74,2.16-1.77c0.82-4.07,4.41-7.13,8.72-7.13H124 V86.4c-0.08,0.01-0.15,0.01-0.23,0.01c-1.53,0-2.77-1.24-2.77-2.77c0-1.53,1.24-2.77,2.77-2.77c0.08,0,0.15,0.01,0.23,0.01v-2.33 c-0.08,0.01-0.15,0.01-0.23,0.01c-1.53,0-2.77-1.24-2.77-2.77s1.24-2.77,2.77-2.77c0.08,0,0.15,0.01,0.23,0.01v-2.33 c-0.08,0.01-0.15,0.01-0.23,0.01c-1.53,0-2.77-1.24-2.77-2.77c0-1.53,1.24-2.77,2.77-2.77c0.08,0,0.15,0.01,0.23,0.01v-2.33 c-0.08,0.01-0.15,0.01-0.23,0.01c-1.53,0-2.77-1.24-2.77-2.77c0-1.53,1.24-2.77,2.77-2.77c0.08,0,0.15,0.01,0.23,0.01v-2.33 c-0.08,0.01-0.15,0.01-0.23,0.01c-1.53,0-2.77-1.24-2.77-2.77c0-1.53,1.24-2.77,2.77-2.77c0.08,0,0.15,0.01,0.23,0.01v-2.33 c-0.08,0.01-0.15,0.01-0.23,0.01c-1.53,0-2.77-1.24-2.77-2.77C121,42.83,122.24,41.59,123.77,41.59z" fill="#ED6C66"/>
    <path d="M104.4,89.47H23.6c-2.82,0-5.11-2.29-5.11-5.11 V43.64c0-2.82,2.29-5.11,5.11-5.11h80.8c2.82,0,5.11,2.29,5.11,5.11v40.72C109.51,87.18,107.22,89.47,104.4,89.47z" fill="none" stroke="#BB303D" stroke-width="3" stroke-miterlimit="10"/>
    <rect height="50.95" fill="none" stroke="#BB303D" stroke-width="2" stroke-miterlimit="10" width="56.27" x="35.87" y="38.53"/>
    <g opacity="0.8">
      <line fill="none" stroke="#4E342E" stroke-width="9" stroke-linecap="round" stroke-miterlimit="10" x1="47.67" x2="80.33" y1="55.3" y2="55.3"/>
      <line fill="none" stroke="#4E342E" stroke-width="9" stroke-linecap="round" stroke-miterlimit="10" x1="52.43" x2="75.57" y1="72.7" y2="72.7"/>
    </g>
    <g>
      <line opacity="0.5" fill="none" stroke="#4E342E" stroke-width="6" stroke-miterlimit="10" x1="100.53" x2="100.53" y1="47.2" y2="80.8"/>
      <line opacity="0.5" fill="none" stroke="#4E342E" stroke-width="6" stroke-miterlimit="10" x1="27.47" x2="27.47" y1="47.2" y2="80.8"/>
    </g>
  </g>
</svg>

<svg viewBox="0 0 128 128" xmlns="http://www.w3.org/2000/svg">
  <defs/>
  <path d="M123.77,41.59 C123.85,41.59 123.92,41.6 124,41.6 L124,38.14 L120.55,38.14 C116.24,38.14 112.65,35.08 111.83,31.01 C111.62,29.98 110.72,29.24 109.67,29.24 L18.33,29.24 C17.28,29.24 16.38,29.98 16.17,31.01 C15.35,35.08 11.76,38.14 7.45,38.14 L4,38.14 L4,41.6 C4.08,41.59 4.15,41.59 4.23,41.59 C5.76,41.59 7,42.83 7,44.36 C7,45.89 5.76,47.13 4.23,47.13 C4.15,47.13 4.08,47.12 4,47.12 L4,49.45 C4.08,49.44 4.15,49.44 4.23,49.44 C5.76,49.44 7,50.68 7,52.21 C7,53.74 5.76,54.98 4.23,54.98 C4.15,54.98 4.08,54.97 4,54.97 L4,57.3 C4.08,57.29 4.15,57.29 4.23,57.29 C5.76,57.3 7,58.54 7,60.07 C7,61.6 5.76,62.84 4.23,62.84 C4.15,62.84 4.08,62.83 4,62.83 L4,65.16 C4.08,65.15 4.15,65.15 4.23,65.15 C5.76,65.15 7,66.4 7,67.93 C7,69.46 5.76,70.7 4.23,70.7 C4.15,70.7 4.08,70.69 4,70.69 L4,73.02 C4.08,73.01 4.15,73.01 4.23,73.01 C5.76,73.01 7,74.25 7,75.78 C7,77.31 5.76,78.55 4.23,78.55 C4.15,78.55 4.08,78.54 4,78.54 L4,80.87 C4.08,80.86 4.15,80.86 4.23,80.86 C5.76,80.86 7,82.1 7,83.63 C7,85.16 5.76,86.4 4.23,86.4 C4.15,86.4 4.08,86.39 4,86.39 L4,89.85 L7.45,89.85 C11.76,89.85 15.35,92.91 16.17,96.98 C16.38,98.01 17.28,98.75 18.33,98.75 L109.67,98.75 C110.72,98.75 111.62,98.01 111.83,96.98 C112.65,92.91 116.24,89.85 120.55,89.85 L124,89.85 L124,86.4 C123.92,86.41 123.85,86.41 123.77,86.41 C122.24,86.41 121,85.17 121,83.64 C121,82.11 122.24,80.87 123.77,80.87 C123.85,80.87 123.92,80.88 124,80.88 L124,78.55 C123.92,78.56 123.85,78.56 123.77,78.56 C122.24,78.56 121,77.32 121,75.79 C121,74.26 122.24,73.02 123.77,73.02 C123.85,73.02 123.92,73.03 124,73.03 L124,70.7 C123.92,70.71 123.85,70.71 123.77,70.71 C122.24,70.71 121,69.47 121,67.94 C121,66.41 122.24,65.17 123.77,65.17 C123.85,65.17 123.92,65.18 124,65.18 L124,62.85 C123.92,62.86 123.85,62.86 123.77,62.86 C122.24,62.86 121,61.62 121,60.09 C121,58.56 122.24,57.32 123.77,57.32 C123.85,57.32 123.92,57.33 124,57.33 L124,55 C123.92,55.01 123.85,55.01 123.77,55.01 C122.24,55.01 121,53.77 121,52.24 C121,50.71 122.24,49.47 123.77,49.47 C123.85,49.47 123.92,49.48 124,49.48 L124,47.15 C123.92,47.16 123.85,47.16 123.77,47.16 C122.24,47.16 121,45.92 121,44.39 C121,42.83 122.24,41.59 123.77,41.59 Z" fill="#ED6C66"/>
  <path d="M104.4,90.97 L23.6,90.97 Q20.864,90.97 18.927,89.033 Q16.99,87.096 16.99,84.36 L16.99,43.64 Q16.99,40.904 18.927,38.967 Q20.864,37.03 23.6,37.03 L104.4,37.03 Q107.136,37.03 109.073,38.967 Q111.01,40.904 111.01,43.64 L111.01,84.36 Q111.01,87.096 109.073,89.033 Q107.136,90.97 104.4,90.97 Z M104.4,87.97 Q105.894,87.97 106.952,86.912 Q108.01,85.854 108.01,84.36 L108.01,43.64 Q108.01,42.146 106.952,41.088 Q105.894,40.03 104.4,40.03 L23.6,40.03 Q19.99,40.03 19.99,43.64 L19.99,84.36 Q19.99,87.97 23.6,87.97 Z" fill="#BB303D"/>
  <path d="M34.87,37.53 L93.14,37.53 L93.14,90.48 L34.87,90.48 Z M36.87,39.53 L36.87,88.48 L91.14,88.48 L91.14,39.53 Z" fill="#BB303D"/>
  <g opacity="0.8">
    <path d="M47.67,50.8 L80.33,50.8 Q82.194,50.8 83.512,52.118 Q84.83,53.436 84.83,55.3 Q84.83,57.164 83.512,58.482 Q82.194,59.8 80.33,59.8 L47.67,59.8 Q45.806,59.8 44.488,58.482 Q43.17,57.164 43.17,55.3 Q43.17,53.436 44.488,52.118 Q45.806,50.8 47.67,50.8 Z" fill="#4E342E"/>
    <path d="M52.43,68.2 L75.57,68.2 Q77.434,68.2 78.752,69.518 Q80.07,70.836 80.07,72.7 Q80.07,74.564 78.752,75.882 Q77.434,77.2 75.57,77.2 L52.43,77.2 Q50.566,77.2 49.248,75.882 Q47.93,74.564 47.93,72.7 Q47.93,70.836 49.248,69.518 Q50.566,68.2 52.43,68.2 Z" fill="#4E342E"/>
  </g>
  <path d="M103.53,47.2 L103.53,80.8 L97.53,80.8 L97.53,47.2 L103.53,47.2 Z" fill="#4E342E" opacity="0.5"/>
  <path d="M30.47,47.2 L30.47,80.8 L24.47,80.8 L24.47,47.2 L30.47,47.2 Z" fill="#4E342E" opacity="0.5"/>
</svg>
